X:1
T:O doulx raport
T:L'Huyllier
T:Source : Livre X de 28 chansons nouvelles à 4 parties---Paris---P.Attaingnant---1541. Editor : André Vierendeels (17/05/18) Notes : Original clefs : C1, C3, C3, F4 Original note values have been halved Editorial accidentals above the staff Square brackets indicate ligatures
T:O doulx raport
T:©
T:©
T:©
T:©
C:L'Huyllier
Z:©
%%score [ 1 [ 2 3 ] 4 ]
L:1/8
Q:1/4=120
M:2/2
K:F
V:1 treble nm="Soprano" snm="S"
V:2 treble nm="Alto" snm="A"
V:3 treble-8 nm="Tenor" snm="T"
V:4 bass nm="Bass" snm="B"
V:1
 F8 | G4 G4 | F4 z2 A2 | B6 c2 | d4 z2 B2 | B2 B2 A2 G2- | G2 FE F2 F2 | G2 G2 A4 | z2 G2 G2 G2 | %9
w: O|doulx ra-|port, O|doulx ra-|port si|long- temps de- si-|* * * ré, qui|as vou- lu,|qui a vou-|
 F2 F2 A2 A2 | B6 B2 | A2 G4 F2 | G4 z2 B2- | B2 c2 d3 c | B4 A4 | z2 B2 B2 B2 | c2 B4 A2 | %17
w: lu du serf la|de- li-|vran- * *|ce, à|_ plus hault _|_ bien,|ne pou- vois|a- spi- *|
 B4 z2 F2 | G6 G2 | F4 z2 G2 | A2 c2 B2 A2- | A2 G4 F2 | G4 z2 B2- | B2 c2 d3 c | B4 A4 | %25
w: rer qu'au|lan- guis-|sant of-|frir la io- ys-|* san- *|ce, à|_ plus hault _|_ bien,|
 z2 B2 B2 B2 | c2 B4 A2 | B4 z2 F2 | G6 G2 | F4 z2 G2 | A2 c2 B2 A2- | A2 G4 F2 | G8 |] %33
w: ne pou- vois|a- spi- *|rer, qu'au|lan- guis-|sant of-|frir la io- ys-|* san- *|ce.|
V:2
 D4 C4 | _E8 | D8 | z2 D2 G2 G2 | F3 E D2 D2 | F2 F2 F2 E2 | D2 D2 D2 D2 | B,CDE F2 F2 | %8
w: O doulx|ra-|port,|O doulx ra-|port _ _ si|long- temps de si-|ré, qui as vou-|lu, _ _ _ _ qui|
 G2 G2 D4- | D4 z2 F2 | F6 F2 |"^b" E2 C2 D4 | D4 z2 D2 |"^b" E4 F4 | G4 z2 F2 | D2 D2 G4- | %16
w: as vou- lu|_ du|serf la|de- li- vran-|ce, à|plus hault|bien, ne|pou- vois a-|
 G2 D2 F3 E | D4 z2 C2 | _E6 E2 | D2 D2 E2 G2 | F2 F2 D2 F2 |"^b" E2 C2 D4 | D4 z2 D2 |"^b" E4 F4 | %24
w: * spi- rer _|_ qu'ay|lan- guis-|sant of- frir la|io- ys- san- *||ce, à|plus hault|
 G4 z2 F2 | D2 D2 G4- | G2 D2 F3 E | D4 z2 C2 | _E6 E2 | D2 D2 E2 G2 | F2 F2 D2 F2 |"^b" E2 C2 D4 | %32
w: bien, ne|pou- vois a-|* spi- rer, _|_ qu'ay|lan- guis-|sant, of- frir la|io- ys- san- *||
"^#" D8 |] %33
w: ce.|
V:3
 A8 | B4 c4 | A2 A4 d2- | dcBA G2 G2 | A2 B2 BABc | d2 d2 c2 B2 | A8 | z2 B2 c2 d2- | d2 c2 B4 | %9
w: O|doulx ra-|port, O doulx|_ _ _ _ _ ra-|port, si long- * * *|* temps de- si-|ré,|qui as vou-||
 A2 A2 A2 A2 | d6 d2 | cBAG A4 | G8 | z2 G2 A4 | B4 c4 | z2 d2 d2 d2 |"^b" edcB c2 c2 | %17
w: lu du cerf, la|de- li-|vran- * * * *|ce,|à plus|hault bien,|ne pou- vois|a- * * * * spi-|
"^b" B4 z2 A2 | B6 c2 | AGAB c4 |"^-natural" z2 A2 B2 d2 | cB AG A4 | G8 | z2 G2 A4 | B4 c4 | %25
w: rer, qu'au|lan- guis-|sant _ _ _ _|of- frir la|io- * ys- * san-|ce,|à plus|hault bien,|
 z2 d2 d2 d2 |"^b" edcB c2 c2 |"^b" B4 z2 A2 | B6 c2 | AGAB c4 | z2 A2 B2 d2 | cB AG A4 | G8 |] %33
w: ne pou- vois|a- * * * * spi-|rer qu'au|lan- guis-|sant _ _ _ _|of- frir la|io- * ys- * san-|ce.|
V:4
 D,4 F,4 | _E,4 C,4 | D,4 z2 D,2 |"^b" G,4 E,4 | D,2 B,,2 B,,4- | B,,2 B,,2 F,2 G,2 | D,4 D,4 | %7
w: O _|doulx ra-|port, si|long- temps|_ si- ré|_ _ _ _|* qui|
 G,2 G,2 F,2 E,D, | E,2 E,2 G,2 G,2 | D,3 E, F,E,D,C, | B,,2 B,,2 B,,2 B,,2 |"^b" C,2 E,2 D,4 | %12
w: as vou- lu, _ _|_ qui as vou-|lu _ _ _ _ _|_ du serf la|de- li- vran-|
 G,,2 G,4 G,2 |"^b" E,4 D,2 D,2 | G,2 G,2 F,4 | z2 G,2 G,2 G,2 | C,2 G,2 F,4 |"^#" B,,4 F,4 | %18
w: ce, à plus|hault bien, à|plus hault bien,|ne pou- voie|a- * spi-|rer, qu'au|
 _E,6 C,2 | D,4 C,4 | F,2 F,2 G,2 D,2 |"^b" E,4 D,4 | G,,2 G,4 G,2 |"^b" E,4 D,2 D,2 | %24
w: lan- guis-|sant of-|frir la io- ys-|san- *|ce, à plus|hault bien, à|
 G,2 G,2 F,4 | z2 G,2 G,2 G,2 | C,2 G,2 F,4 | B,,4 F,4 | _E,6 C,2 | D,4 C,4 | F,2 F,2 G,2 D,2 | %31
w: plus hault bien,|ne pou- vois|a- * spi-|rer qu'au|lan- guis-|* sant,|of- frir la io-|
"^b" E,4 D,4 | G,,8 |] %33
w: ys- san-|ce.|

